!!!!SEGMENT: Ric2007-Cognoscimus_Domine.krn
!!!id: Ric2007
!!!AGN: Motet
!!!SCT: Elzinga (1999)
!!!voices: 4
!!!COM: Jean Richafort
!!!OTL: Cognoscimus, Domine
**kern	**kern	**kern	**kern
*part4	*part3	*part2	*part1
*staff4	*staff3	*staff2	*staff1
*I"Bassus	*I"Tenor	*I"Altus	*I"Superius
*I'B	*I'T	*I'A	*I'S
*clefF4	*clefGv2	*clefGv2	*clefG2
*k[b-]	*k[b-]	*k[b-]	*k[b-]
*F:	*F:	*F:	*F:
*M2/1	*M2/1	*M2/1	*M2/1
*met(C|)	*met(C|)	*met(C|)	*met(C|)
!!section: Prima pars: Cognoscimus, Domine
!!!OMD: Prima pars: Cognoscimus, Domine
=1	=1	=1	=1
0r	0A	0r	0r
=2	=2	=2	=2
0r	1.c	0r	0a
.	2F	.	.
=3	=3	=3	=3
0r	0F	0A	1.cc
.	.	.	2f
=4	=4	=4	=4
0r	1.A	1.c	0f
.	2D	2F	.
=5	=5	=5	=5
0D	1D	0F	1.a
.	1r	.	.
.	.	.	2d
=6	=6	=6	=6
1.F	1r	1.A	1d
.	2r	.	2r
2BB-y	2d	2D	2b-y
=7	=7	=7	=7
0BB-y	1d	1D	1b-y
.	1B-y	1r	1g
=8	=8	=8	=8
1.D	1.A	0d	1.f
2GG	2B-y	.	2g
=9	=9	=9	=9
0GG	1B-y	1d	2.g
.	.	.	4a
.	1G	1B-y	4b-y
.	.	.	4cc
.	.	.	[2dd
=10	=10	=10	=10
0r	1r	1.A	2dd]
.	.	.	4cc
.	.	.	4b-y
.	2r	.	2cc
.	[2G	2B-y	2dd
=11	=11	=11	=11
0r	2G]	2B-y	2dd
.	4F	4A	2ee
.	4E	4G	.
.	2F	2A	2cc
.	2D	[2B-y	[2dd
=12	=12	=12	=12
0r	1G	2B-]	2dd]
.	.	4A	4cc
.	.	4G	4b-y
.	2F	2A	2cc
.	2D	[2B-y	[2dd
=13	=13	=13	=13
0r	1E	2B-]	2dd]
.	.	4A	2cc#i
.	.	4G	.
.	1D	1F	1dd
=14	=14	=14	=14
0F	0A	0r	0cc
=15	=15	=15	=15
1F	1A	2r	1.cc
.	.	2F	.
1D	1B-y	2F	.
.	.	2F	2dd
=16	=16	=16	=16
1.C	1.c	1.G	1.ee
2D	2A	2F	2ff
=17	=17	=17	=17
0D	0A	2.F	2.ff
.	.	4G	4ee
.	.	2.A	2dd
.	.	.	4cc
.	.	4B-y	4b-y
=18	=18	=18	=18
0r	0r	2c	2a
.	.	1d	1b-y
.	.	4c	4a
.	.	4B-y	4g
=19	=19	=19	=19
1D	1d	0A	0f
2D	2d	.	.
2D	2d	.	.
=20	=20	=20	=20
1F	1c	0r	0r
1G	1B-y	.	.
=21	=21	=21	=21
0D	0A	1f	1f
.	.	2f	2f
.	.	2f	2f
=22	=22	=22	=22
1r	0r	1e	1a
1BB-y	.	1d	1b-y
=23	=23	=23	=23
2.F	1r	1c	0a
4E	.	.	.
4F	1D	1r	.
4G	.	.	.
[2A	.	.	.
=24	=24	=24	=24
4A]	2.A	0r	0r
4G	.	.	.
4F	.	.	.
4E	4G	.	.
2D	4A	.	.
.	4B-y	.	.
2C	[2c	.	.
=25	=25	=25	=25
2.F	4c]	0r	0r
.	4B-y	.	.
.	4A	.	.
4E	4G	.	.
4D	4F	.	.
4C	4G	.	.
2F	4A	.	.
.	4F	.	.
=26	=26	=26	=26
2E	2G	0r	1r
1D	2F	.	.
.	1E	.	1g
2C#i	.	.	.
=27	=27	=27	=27
1D	1D	1r	2.dd
.	.	.	4cc
1r	1r	[1B-y	4dd
.	.	.	4ee
.	.	.	[2ff
=28	=28	=28	=28
1r	0r	2B-]	4ff]
.	.	.	4ee
.	.	2B-y	4dd
.	.	.	4cc
1GG	.	1B-y	1dd
=29	=29	=29	=29
2.D	1r	1A	[0dd
4C	.	.	.
4D	1D	1F	.
4E	.	.	.
[2F	.	.	.
=30	=30	=30	=30
4F]	1A	1r	0dd]
4E	.	.	.
4D	.	.	.
4C	.	.	.
2.BB-y	1B-y	1D	.
8AAL	.	.	.
8GGJ	.	.	.
=31	=31	=31	=31
2FF	2A	2.A	0r
2F	1c	.	.
.	.	4G	.
2F	.	4A	.
.	.	4B-y	.
2F	4B-y	[2c	.
.	4A	.	.
=32	=32	=32	=32
1E	2G	4c]	0r
.	.	4B-y	.
.	2c	2G	.
2D	1F	2A	.
4C	.	[2B-y	.
4BB-y	.	.	.
=33	=33	=33	=33
2C	2r	2B-]	0r
2D	2d	1A	.
1BB-y	2d	.	.
.	2d	2G	.
=34	=34	=34	=34
2AA	2.c	1A	0r
2F	.	.	.
.	4B-y	.	.
2F	2A	2r	.
2F	4G	2c	.
.	4F	.	.
=35	=35	=35	=35
1E	2G	2c	0r
.	2C	2c	.
2D	2.F	2A	.
4C	.	[2B-y	.
4BB-y	8EL	.	.
.	8DJ	.	.
=36	=36	=36	=36
2C	2E	2B-]	2r
2D	2F	1A	2dd
1BB-y	2.D	.	2dd
.	.	2G	2dd
.	4E	.	.
=37	=37	=37	=37
1.AA	4F	2.A	2.cc
.	4G	.	.
.	4A	.	.
.	4B-y	4G	4b-y
.	4c	2F	2a
.	4d	.	.
2C	[2e	2E	2g
=38	=38	=38	=38
2D	4e]	2F	2f
.	4d	.	.
2BB-y	1d	2G	4e
.	.	.	4d
1AA	.	1A	1e
.	2c#i	.	.
=39	=39	=39	=39
2r	1d	2r	1d
2F	.	2A	.
2F	2r	2A	1r
2F	2c	2A	.
=40	=40	=40	=40
1E	2c	1G	0r
.	2c	.	.
2D	2A	2.F	.
4C	[2B-y	.	.
4BB-y	.	8EL	.
.	.	8DJ	.
=41	=41	=41	=41
2C	4B-]	2E	2r
.	4A	.	.
2D	1A	2F	2dd
1BB-y	.	2.D	2dd
.	2G	.	2dd
.	.	4E	.
=42	=42	=42	=42
2AA	0A	4F	2.cc
.	.	4G	.
2F	.	2A	.
.	.	.	4b-y
2F	.	2F	2a
2F	.	2c	4g
.	.	.	4f
=43	=43	=43	=43
1E	0r	2c	2g
.	.	2c	2c
2D	.	2A	2.f
4C	.	[2B-y	.
4BB-y	.	.	8eL
.	.	.	8dJ
=44	=44	=44	=44
2C	2r	4B-]	2e
.	.	4A	.
2D	2d	1A	2f
1BB-y	2d	.	2.d
.	2d	2G	.
.	.	.	4e
=45	=45	=45	=45
1.AA	2.c	2.A	4f
.	.	.	4g
.	.	.	4a
.	4B-y	4G	4b-y
.	2A	2F	4cc
.	.	.	4dd
2C	2G	2E	[2ee
=46	=46	=46	=46
2D	2F	2F	2ee]
2BB-y	4E	2G	2dd
.	4D	.	.
1AA	1E	2.A	2cc
.	.	.	[2ee
.	.	4G	.
=47	=47	=47	=47
2r	2F	2A	2ee]
1G	2G	1B-y	1dd
.	1E	.	.
2G	.	4A	2cc#i
.	.	4G	.
=48	=48	=48	=48
2F	0D	1A	0dd
2D	.	.	.
[1F	.	2r	.
.	.	[2A	.
=49	=49	=49	=49
2F]	0r	2A]	2r
2C	.	2A	1cc
1C	.	2G	.
.	.	2E	2cc
=50	=50	=50	=50
0r	1r	1.G	2b-y
.	.	.	2g
.	2r	.	[1b-y
.	[2d	2D	.
=51	=51	=51	=51
2r	2d]	1D	2b-]
1A	2d	.	2f
.	2c	1r	1f
2A	2A	.	.
=52	=52	=52	=52
2G	1.c	1C	0r
2E	.	.	.
[1G	.	2.C	.
.	2G	.	.
.	.	4D	.
=53	=53	=53	=53
2G]	2G	2E	0r
2D	2A	2.F	.
2.D	1A	.	.
.	.	4E	.
.	.	4F	.
4E	.	4G	.
=54	=54	=54	=54
2F	0r	2A	0r
1G	.	2.B-y	.
.	.	4A	.
[2F	.	4G	.
.	.	4F	.
=55	=55	=55	=55
2F]	1r	1G	1r
2E	.	.	.
[1F	2r	1F	2r
.	[2c	.	[2a
=56	=56	=56	=56
1F]	2c]	0r	2a]
.	2c	.	2a
1r	2B-y	.	2g
.	2G	.	2e
=57	=57	=57	=57
1r	1.B-y	0r	1.g
2r	.	.	.
[2A	2F	.	2d
=58	=58	=58	=58
2A]	2.F	0r	1d
2A	.	.	.
.	8GL	.	.
.	8AJ	.	.
2G	2B-y	.	1dd
2F	2A	.	.
=59	=59	=59	=59
1G	2.B-y	1.d	1r
.	8AL	.	.
.	8GJ	.	.
2D	2B-y	.	2.f
2D	[2A	2d	.
.	.	.	4g
=60	=60	=60	=60
2.F	4A]	2c	4a
.	4G	.	4b-y
.	4F	2A	2cc
4G	4E	.	.
1A	4F	[1c	2.f
.	4G	.	.
.	4A	.	.
.	4B-y	.	4g
=61	=61	=61	=61
0r	2c	2c]	2a
.	2.d	2G	2.b-y
.	.	[1G	.
.	4c	.	4cc
.	4B-y	.	[2dd
.	4A	.	.
=62	=62	=62	=62
0r	2B-y	2G]	4dd]
.	.	.	4ee
.	2A	2F	1ff
.	1G	1B-y	.
.	.	.	2ee
=63	=63	=63	=63
2r	1F	2A	1ff
2D	.	2A	.
2C	1r	2c	1r
2D	.	2B-y	.
=64	=64	=64	=64
1F	2r	1A	2r
.	2F	.	2dd
1r	2A	1r	2cc
.	2G	.	2dd
=65	=65	=65	=65
2r	1F	2r	1ff
2D	.	2A	.
2C	1r	2c	1r
2D	.	2B-y	.
=66	=66	=66	=66
1F	2r	1A	2r
.	2F	.	2dd
1r	2A	1r	2cc
.	2G	.	2dd
=67	=67	=67	=67
2r	1F	2r	1ff
2D	.	2A	.
2C	1r	2c	1r
2D	.	2B-y	.
=68	=68	=68	=68
2.F	0r	2.A	0r
8EL	.	8GL	.
8DJ	.	8FJ	.
2E	.	2G	.
2F	.	2A	.
=69	=69	=69	=69
2D	0r	4F	0r
.	.	4G	.
1F	.	4A	.
.	.	4B-y	.
.	.	4A	.
.	.	4B-y	.
2E	.	2c	.
=70	=70	=70	=70
2D	0r	2B-y	1r
2C	.	1A	.
1BB-y	.	.	1dd
.	.	2G	.
=71	=71	=71	=71
1AA	2r	1A	1.cc
.	2F	.	.
1r	2A	1r	.
.	2G	.	2dd
=72	=72	=72	=72
0r	4F	0r	2.ff
.	4G	.	.
.	4A	.	.
.	4B-y	.	8eeL
.	.	.	8ddJ
.	2c	.	2ee
.	[2F	.	2ff
=73	=73	=73	=73
0r	4F]	0r	2dd
.	4G	.	.
.	4A	.	1ff
.	4B-y	.	.
.	4A	.	.
.	4B-y	.	.
.	2c	.	2ee
=74	=74	=74	=74
0r	2B-y	1r	2dd
.	1A	.	2cc
.	.	2r	1b-y
.	2G	2G	.
=75	=75	=75	=75
2r	0A	1.c	1a
2C	.	.	.
[1F	.	.	2r
.	.	2B-y	2f
=76	=76	=76	=76
2F]	1r	2A	1cc
2E	.	2G	.
2D	2r	2F	2b-y
2C	2c	2E	[2a
=77	=77	=77	=77
1BB-y	1d	2.D	2a]
.	.	.	2g
.	.	4E	.
2AA	[1c	2F	[1a
2C	.	2E	.
=78	=78	=78	=78
1F	2c]	2r	1a]
.	2B-y	2F	.
2.F	2.A	1c	2r
.	.	.	2a
4E	4G	.	.
=79	=79	=79	=79
2D	2F	2B-y	2b-y
2C	2E	1A	2cc
1BB-y	1D	.	1dd
.	.	2G	.
=80	=80	=80	=80
[0AAl	1E	[0Al	[0ccl
.	1F	.	.
=	=	=	=
00AA]	00E	00A]	00cc]
=||	=||	=||	=||
*M2/1	*M2/1	*M2/1	*M2/1
*met(C|)	*met(C|)	*met(C|)	*met(C|)
!!section: Secunda pars: Vita nostra in dolore
!!!OMD: Secunda pars: Vita nostra in dolore
!	!	!	!LO:TX:a:t=Secunda Pars&colon; Vita nostra in dolore
1AA	0r	0r	0r
1C	.	.	.
=81	=81	=81	=81
1D	0r	0r	0r
1C	.	.	.
=82	=82	=82	=82
2AA	1E	0r	0r
2AA	.	.	.
1BB-y	1G	.	.
=83	=83	=83	=83
1AA	1A	0r	0r
2r	1G	.	.
2C	.	.	.
=84	=84	=84	=84
2C	2E	0r	1r
2C	2E	.	.
1D	1F	.	1a
=85	=85	=85	=85
2C	1E	0r	1cc
2AA	.	.	.
1BB-y	1D	.	1dd
=86	=86	=86	=86
1AA	1.E	1A	1cc
1AA	.	1c	2a
.	4D	.	2a
.	4C	.	.
=87	=87	=87	=87
1GG	2.G	1d	1b-y
.	4F	.	.
[1AA	2E	1c	2.a
.	2A	.	.
.	.	.	4g
=88	=88	=88	=88
1AA]	1c	2A	2f
.	.	2A	2e
2r	1d	1B-y	2g
2D	.	.	[2f
=89	=89	=89	=89
0F	1c	0A	4f]
.	.	.	4g
.	.	.	4a
.	.	.	4b-y
.	2A	.	4cc
.	.	.	4f
.	2A	.	[2ff
=90	=90	=90	=90
1G	1B-y	1r	4ff]
.	.	.	8eeL
.	.	.	8ddJ
.	.	.	4ee
.	.	.	4ff
1F	1A	2r	4dd
.	.	.	4cc
.	.	2A	[2ff
=91	=91	=91	=91
2D	2r	2A	4ff]
.	.	.	4ee
2D	2F	1B-y	1dd
1E	1G	.	.
.	.	4A	2cc#i
.	.	4G	.
=92	=92	=92	=92
2D	1A	1F	1dd
2F	.	.	.
2E	2G	2G	2cc
[2D	[2F	2A	4dd
.	.	.	4cc
=93	=93	=93	=93
2D]	2F]	2B-y	4b-y
.	.	.	4a
2C	2E	2c	1a
1BB-y	1D	1d	.
.	.	.	2g
=94	=94	=94	=94
1AA	1E	1c	1a
2r	2r	2r	2r
[2C	[2E	[2c	[2g
=95	=95	=95	=95
2C]	2E]	2c]	2g]
2C	2E	2c	2g
2BB-y	2F	2d	2b-y
2BB-y	2F	2d	2b-y
=96	=96	=96	=96
1C	1E	1c	1g
2r	2r	2r	2r
[2C	[2E	[2c	[2g
=97	=97	=97	=97
2C]	2E]	2c]	2g]
2C	2E	2c	2g
2BB-y	2F	2d	2b-y
2BB-y	2F	2d	2b-y
=98	=98	=98	=98
0C	0E	0c	0g
=99	=99	=99	=99
1.D	2r	1A	2.f
.	1F	.	.
.	.	.	4g
.	.	2F	4a
.	.	.	4b-y
2C	2E	2G	4cc
.	.	.	8b-yL
.	.	.	8ccJ
=100	=100	=100	=100
1BB-y	1F	0B-y	2dd
.	.	.	2ff
1GG	1G	.	2ee
.	.	.	[2dd
=101	=101	=101	=101
0AA	0E	[0A	2dd]
.	.	.	4cc#i
.	.	.	4bni
.	.	.	1cc#i
=102	=102	=102	=102
1r	[0D	0A]	1dd
1F	.	.	1r
=103	=103	=103	=103
1F	0D]	1r	1ff
1F	.	1A	1ee
=104	=104	=104	=104
0D	0r	2A	1ff
.	.	2A	.
.	.	1F	1dd
=105	=105	=105	=105
1C	0c	1G	1ee
2AA	.	2A	2cc
[2C	.	[2G	[2ee
=106	=106	=106	=106
2C]	1c	2G]	2ee]
2FF	.	2F	2a
1FF	1c	1F	1a
=107	=107	=107	=107
1r	1A	2r	2r
.	.	2A	2cc
1F	1c	2A	2a
.	.	2A	[2cc
=108	=108	=108	=108
1F	2A	2F	2cc]
.	1c	2A	2f
1F	.	2F	1f
.	2F	[2A	.
=109	=109	=109	=109
1D	1F	2A]	2r
.	.	2D	1ff
1F	2r	1D	.
.	2A	.	[2dd
=110	=110	=110	=110
2D	2B-y	0r	2dd]
1F	1A	.	1cc
2BB-y	2B-y	.	2dd
=111	=111	=111	=111
1.BB-y	1.B-y	1r	1.dd
.	.	1d	.
2C	4A	.	4cc
.	4G	.	4b-y
=112	=112	=112	=112
1D	1F	1d	2.a
.	.	.	4d
[1F	[1A	1d	4d
.	.	.	4e
.	.	.	4f
.	.	.	4g
=113	=113	=113	=113
1F]	1A]	2c	4a
.	.	.	4d
.	.	2d	2.dd
1E	1G	1e	.
.	.	.	4cc
.	.	.	[2cc
=114	=114	=114	=114
1.D	1.F	1.f	2cc]
.	.	.	4bni
.	.	.	4a
.	.	.	2bni
2C	2G	2e	2cc
=115	=115	=115	=115
0C	1G	[0e	[0cc
.	2r	.	.
.	[2G	.	.
=116	=116	=116	=116
1C	2G]	1e]	1cc]
.	2E	.	.
2AA	2F	1r	1r
2BB-y	2G	.	.
=117	=117	=117	=117
2C	1A	0r	0r
1D	.	.	.
.	2F	.	.
2BB-y	2G	.	.
=118	=118	=118	=118
2C	2A	0r	0r
2.D	2.B-y	.	.
4C	4A	.	.
4BB-y	[2A	.	.
4AA	.	.	.
=119	=119	=119	=119
1BB-y	2A]	1r	1r
.	2G	.	.
1AA	2A	1c	2r
.	[2A	.	[2f
=120	=120	=120	=120
0r	2A]	2A	2f]
.	2F	2B-y	2d
.	2G	2c	2e
.	2A	[2d	2f
=121	=121	=121	=121
0r	1B-y	2d]	1g
.	.	2B-y	.
.	1r	2c	2a
.	.	[2d	[2b-y
=122	=122	=122	=122
0r	0r	4d]	2b-]
.	.	4c	.
.	.	4B-y	1a
.	.	4A	.
.	.	1B-y	.
.	.	.	2g
=123	=123	=123	=123
2r	1c	2r	1a
1F	.	1A	.
.	2A	.	1r
2D	2B-y	2F	.
=124	=124	=124	=124
2E	2c	2G	0r
2F	1d	2A	.
1G	.	2B-y	.
.	2B-y	2G	.
=125	=125	=125	=125
2r	2c	2A	0r
2D	1d	2.B-y	.
2BB-y	.	.	.
.	.	4A	.
2C	2c	[2A	.
=126	=126	=126	=126
2D	1B-y	2A]	1r
2E	.	2G	.
1F	2r	1A	2r
.	[2A	.	[2cc
=127	=127	=127	=127
2F	2A]	0r	2cc]
2F	2F	.	2a
1E	1G	.	2b-y
.	.	.	2cc
=128	=128	=128	=128
1D	1A	1F	1dd
2r	1B-y	2.G	1dd
[2BB-y	.	.	.
.	.	8FL	.
.	.	8EJ	.
=129	=129	=129	=129
2BB-]	2B-y	2F	1dd
2GG	2B-y	2G	.
1AA	1A	1E	1cc
=130	=130	=130	=130
1BB-y	2G	2D	1.b-y
.	1F	1d	.
1BB-y	.	.	.
.	2D	2d	2a
=131	=131	=131	=131
1C	1E	1c	1g
1D	1F	2A	2f
.	.	[2d	[2ff
=132	=132	=132	=132
2BB-y	1G	2d]	2ff]
2C	.	2c	2ee
2D	1F	2A	2ff
4C	.	[2B-y	2dd
4BB-y	.	.	.
=133	=133	=133	=133
2C	2r	4B-]	2ee
.	.	4A	.
2D	2F	1A	1ff
1BB-y	2.D	.	.
.	.	2G	4ee
.	4E	.	4dd
=134	=134	=134	=134
[0AA	2F	0c	1cc
.	2E	.	.
.	2F	.	2r
.	2E	.	2a
=135	=135	=135	=135
0AA_	2r	1r	2a
.	2A	.	2a
.	2A	2r	2.cc
.	2A	2A	.
.	.	.	4b-y
=136	=136	=136	=136
0AA_	2.c	2A	2.a
.	.	2A	.
.	4B-y	.	4g
.	2A	2.c	2f
.	2G	.	2e
.	.	4B-y	.
=137	=137	=137	=137
0AA]	2F	2A	2r
.	2E	2G	2cc
.	1A	2F	2cc
.	.	2E	2cc
=138	=138	=138	=138
2r	0A	2.D	2dd
2D	.	.	1ff
.	.	4E	.
2D	.	4F	.
.	.	4E	.
2D	.	4F	4ee
.	.	4G	4dd
=139	=139	=139	=139
2.F	1r	4A	2cc
.	.	4B-y	.
.	.	2.c	1ff
4E	.	.	.
2D	1F	.	.
.	.	4B-y	.
4C	.	[2B-y	4ee
4BB-y	.	.	4dd
=140	=140	=140	=140
2C	2E	4B-]	2ee
.	.	4A	.
2D	2.D	1A	1ff
1BB-y	.	.	.
.	4C	.	.
.	4D	2G	4ee
.	4E	.	4dd
=141	=141	=141	=141
1.AA	2F	2A	4cc
.	.	.	4dd
.	2E	2G	2.ee
.	2F	2A	.
.	.	.	4cc
2GG	2G	[2B-y	[2dd
=142	=142	=142	=142
1AA	1E	4B-]	2dd]
.	.	4A	.
.	.	2A	2cc#i
2BB-y	2r	2G	2dd
2AA	2C	[2A	[2ff
=143	=143	=143	=143
1BB-y	2.D	2A]	2ff]
.	.	2G	4ee
.	4E	.	4dd
[1AA	2F	2.A	4cc
.	.	.	4dd
.	2E	.	[2ee
.	.	4G	.
=144	=144	=144	=144
2AA]	2F	2A	4ee]
.	.	.	4cc
2GG	2G	2.B-y	1dd
1AA	1E	.	.
.	.	4A	.
.	.	2A	2cc#i
=145	=145	=145	=145
2BB-y	2r	2G	2dd
2AA	2C	1A	1ff
1BB-y	2.D	.	.
.	.	2G	4ee
.	4E	.	4dd
=146	=146	=146	=146
[0AA	2F	[0A	[0cc
.	2E	.	.
.	1F	.	.
=147	=147	=147	=147
0AA;]	0E;	0A;]	0cc;]
=148	=148	=148	=148
0D	0D	0A	0dd
=149	=149	=149	=149
00Dl	00Dl	00Al	00ddl
==	==	==	==
*-	*-	*-	*-
!!!system-decoration: [*]
!!!RDF**kern: i = editorial accidental
!!!RDF**kern: l = terminal long
!!!ENC: Benjamin Ory
!!!END: 2021/1/11
!!!EED: Benjamin Ory
!!!EEV: 2021/05/02
!!!YEC: Copyright 2021 Benjamin Ory, All Rights Reserved
!!!ONB: Translated from MusicXML on 2021/05/02
